src/actions/24/insert-page-break.svg

<svg viewBox="0 0 24 24" xmlns="http://www.w3.org/2000/svg">
 <defs>
  <style type="text/css">.ColorScheme-Text {
        color:#2e3440;
      }
      .ColorScheme-Highlight {
        color:#88c0d0;
      }</style>
 </defs>
 <path class="ColorScheme-Text" d="m5 4v6h14v-1-5h-1-12-1zm1 1h12v4h-12v-4zm-1 8v1 6h1 8 1l4-4v-1.4062-0.59375-1h-14zm1 1h12v1h-4v1 3h-8v-5z" fill="currentColor"/>
 <path class="ColorScheme-Highlight" d="m6 11v1h2v-1h-2zm5 0v1h2v-1h-2zm5 0v1h2v-1h-2z" fill="currentColor"/>
</svg>

<svg xmlns="http://www.w3.org/2000/svg" viewBox="0 0 24 24">
  <defs id="defs3051">
    <style type="text/css" id="current-color-scheme">
      .ColorScheme-Text {
        color:#2e3440;
      }
      .ColorScheme-Highlight {
        color:#88c0d0;
      }
      </style>
  </defs>
 <path 
     style="fill:currentColor;fill-opacity:1;stroke:none" 
     d="M 5 4 L 5 10 L 19 10 L 19 9 L 19 4 L 18 4 L 6 4 L 5 4 z M 6 5 L 18 5 L 18 9 L 6 9 L 6 5 z M 5 13 L 5 14 L 5 20 L 6 20 L 14 20 L 15 20 L 19 16 L 19 14.59375 L 19 14 L 19 13 L 5 13 z M 6 14 L 18 14 L 18 15 L 14 15 L 14 16 L 14 19 L 6 19 L 6 14 z "
     class="ColorScheme-Text"
     />
 <path 
     style="fill:currentColor;fill-opacity:1;stroke:none" 
     d="M 6 11 L 6 12 L 8 12 L 8 11 L 6 11 z M 11 11 L 11 12 L 13 12 L 13 11 L 11 11 z M 16 11 L 16 12 L 18 12 L 18 11 L 16 11 z "
     class="ColorScheme-Highlight"
     />
</svg>
